dist/svg/u1F4AB.svg

<?xml version="1.0" encoding="UTF-8"?><svg id="Layer_1" xmlns="http://www.w3.org/2000/svg" viewBox="0 0 40 40"><g><path d="M6.5272,12.71524c-2.07557-3.90765-2.6178-7.14621-1.11458-8.6495,2.75977-2.75962,11.36866,1.37469,19.22857,9.23467,7.85991,7.85998,11.99437,16.46873,9.2346,19.22864-2.75969,2.75962-11.36866-1.37469-19.22849-9.23467-.42959-.42959-.84805-.86143-1.25487-1.29442l-2.30816,3.70564c.52424,.57487,1.06887,1.14545,1.63315,1.70973,9.02842,9.0285,19.66736,13.02745,23.76272,8.93209s.09626-14.7343-8.93216-23.76251C18.99141,4.02828,8.98828-.01105,4.47983,3.07631c-.55446,.37969-.95755,.93512-1.15611,1.57712-.46758,1.51183-.63213,4.66681,3.40253,8.98739l-.19906-.92558Z" style="fill:#ffe28f;"/><path d="M17.29226,37.36457l-3.73726-3.66124c-.26387-.2585-.63804-.37061-1.00059-.29979l-5.13475,1.00305c-.91297,.17834-1.63413-.7676-1.22036-1.60073l2.32717-4.68573c.16431-.33084,.15531-.72134-.02408-1.04425l-2.54069-4.57348c-.45174-.81317,.22506-1.79136,1.14528-1.65528l5.17553,.7653c.36542,.05403,.73403-.0752,.9857-.34559l3.56452-3.82962c.63378-.68091,1.77323-.33952,1.92818,.57771l.87149,5.15871c.06153,.36423,.29835,.67486,.63328,.83066l4.74368,2.20664c.84343,.39235,.87086,1.58152,.0464,2.01233l-4.63692,2.42296c-.32739,.17107-.54964,.49229-.59432,.85897l-.63276,5.1934c-.11251,.9234-1.23501,1.31695-1.8995,.66598Z" style="fill:#ffc522;"/></g><rect width="40" height="40" style="fill:none;"/></svg>

<svg id="Layer_1" data-name="Layer 1" xmlns="http://www.w3.org/2000/svg" viewBox="0 0 40 40"><defs><style>.cls-1{fill:#ffe28f;}.cls-2{fill:#ffc522;}.cls-3{fill:none;}</style></defs><path class="cls-1" d="M6.527,12.715C4.452,8.808,3.909,5.569,5.413,4.066,8.172,1.306,16.781,5.44,24.641,13.3s12,16.469,9.235,19.229-11.369-1.375-19.229-9.235Q14,22.65,13.392,22l-2.308,3.706q.786.861,1.633,1.709c9.029,9.029,19.668,13.028,23.763,8.932s.1-14.734-8.932-23.762C18.991,4.028,8.988-.011,4.48,3.076A2.961,2.961,0,0,0,3.324,4.653c-.468,1.512-.632,4.667,3.4,8.988Z"/><path class="cls-2" d="M17.292,37.365,13.555,33.7a1.123,1.123,0,0,0-1-.3l-5.134,1a1.123,1.123,0,0,1-1.221-1.6L8.526,28.12A1.118,1.118,0,0,0,8.5,27.076L5.962,22.5a1.122,1.122,0,0,1,1.145-1.655l5.176.765a1.122,1.122,0,0,0,.985-.345l3.565-3.83a1.122,1.122,0,0,1,1.928.578l.871,5.159a1.124,1.124,0,0,0,.634.83l4.743,2.207a1.122,1.122,0,0,1,.047,2.012l-4.637,2.423a1.12,1.12,0,0,0-.594.859L19.192,36.7A1.123,1.123,0,0,1,17.292,37.365Z"/><rect class="cls-3" width="40" height="40"/></svg>
